X: 45
T: Leken hinnes Lusia Mlmann
O: Rros, Norge
Z:Transcribed to abcby Jon Magnusson 080501
R: Rrospols
D: Smviltlaget - P Skuddhold
M: 3/4
L: 1/8
K: D
f>e d2 (3 def|g2e2g2|(3:2:4 b2fge2 d>f|ec A4|
f>e d2 (3 def|g2e2g2|(3:2:4 b2fge2 d>f|ec d4:|
|:d>f a2 a>a|ag b3 a|(3:2:4 g2fea2 f>d|dc A4|
d>f a2 a>a|ag b3 a|(3:2:4 g2fea2 f>d|dc d4:|
